X:3
T:Branle de Gouloux
R:Branle
A:Morvan
C:D'apr?s la version collect?e aupr?s de Lucien L?ger, violoneux ? Gouloux
O:France
Z:Transcrit et/ou corrig? par Michel BELLON - 2007-05-12
Z:Pour toute observation mailto:galouvielle@free.fr
M:6/8
K:Cmaj
G |: c2e d2c | Bcd c2G | c2e d2c | Bcd d3 :| [M:2/4] |:
d2 d>c | BA G2 | GA Bc |1 de fe :|2 dB c2 |]
T:Autre version (UGMM) 
M:6/8
c2ed2c|Bcd c2 G|c2 ed2c|Bcd c3:|
d3d2c|B2AG3|G2cB2c|d2ef2d|d3d2c|B2AG3|G2cB2B|c2dc3|]
<end>
<start>
